SVG_Azure_Grouped/Workload/Generic Email Server.svg

<?xml version="1.0" encoding="UTF-8" standalone="no"?>
<!-- Generated by Microsoft Visio, SVG Export Generic Email Server.svg Page-1 -->

<svg
   xmlns:dc="http://purl.org/dc/elements/1.1/"
   xmlns:cc="http://creativecommons.org/ns#"
   xmlns:rdf="http://www.w3.org/1999/02/22-rdf-syntax-ns#"
   xmlns:svg="http://www.w3.org/2000/svg"
   xmlns="http://www.w3.org/2000/svg"
   xmlns:sodipodi="http://sodipodi.sourceforge.net/DTD/sodipodi-0.dtd"
   xmlns:inkscape="http://www.inkscape.org/namespaces/inkscape"
   width="0.66930145in"
   height="0.78736407in"
   viewBox="0 0 48.189754 56.690259"
   xml:space="preserve"
   class="st8"
   version="1.1"
   id="svg136"
   sodipodi:docname="Generic Email Server.svg"
   style="font-size:12px;overflow:visible;color-interpolation-filters:sRGB;fill:none;fill-rule:evenodd;stroke-linecap:square;stroke-miterlimit:3"
   inkscape:version="0.92.5 (2060ec1f9f, 2020-04-08)"><metadata
   id="metadata140"><rdf:RDF><cc:Work
       rdf:about=""><dc:format>image/svg+xml</dc:format><dc:type
         rdf:resource="http://purl.org/dc/dcmitype/StillImage" /></cc:Work></rdf:RDF></metadata><sodipodi:namedview
   pagecolor="#ffffff"
   bordercolor="#666666"
   borderopacity="1"
   objecttolerance="10"
   gridtolerance="10"
   guidetolerance="10"
   inkscape:pageopacity="0"
   inkscape:pageshadow="2"
   inkscape:window-width="640"
   inkscape:window-height="480"
   id="namedview138"
   showgrid="false"
   inkscape:zoom="1.1631355"
   inkscape:cx="42.746015"
   inkscape:cy="22.081036"
   inkscape:window-x="0"
   inkscape:window-y="0"
   inkscape:window-maximized="0"
   inkscape:current-layer="svg136" />
	<style
   type="text/css"
   id="style2">
	<![CDATA[
		.st1 {fill:url(#grad0-11);stroke:none;stroke-linecap:butt;stroke-width:35.9597}
		.st2 {fill:#003067;stroke:none;stroke-linecap:butt;stroke-width:35.9597}
		.st3 {fill:#50e6ff;stroke:none;stroke-linecap:butt;stroke-width:35.9597}
		.st4 {fill:#50e6ff;stroke:none;stroke-linecap:butt;stroke-width:63.4472}
		.st5 {fill:#32bedd;stroke:none;stroke-linecap:butt;stroke-width:63.4472}
		.st6 {fill:#198ab3;stroke:none;stroke-linecap:butt;stroke-width:63.4472}
		.st7 {fill:url(#grad0-43);stroke:none;stroke-linecap:butt;stroke-width:63.4472}
		.st8 {fill:none;fill-rule:evenodd;font-size:12px;overflow:visible;stroke-linecap:square;stroke-miterlimit:3}
	]]>
	</style>

	<defs
   id="Patterns_And_Gradients">
		<linearGradient
   id="grad0-11"
   x1="-0.0003296479"
   y1="72.026253"
   x2="42.764633"
   y2="72.026253"
   gradientTransform="scale(0.75436167,1.3256241)"
   gradientUnits="userSpaceOnUse">
			<stop
   offset="0"
   stop-color="#949494"
   stop-opacity="1"
   id="stop4" />
			<stop
   offset="0.53"
   stop-color="#a2a2a2"
   stop-opacity="1"
   id="stop6" />
			<stop
   offset="1"
   stop-color="#b3b3b3"
   stop-opacity="1"
   id="stop8" />
		</linearGradient>
		<linearGradient
   id="grad0-43"
   x1="0"
   y1="243.013"
   x2="18.731679"
   y2="243.013"
   gradientTransform="scale(1.7200807,0.58136806)"
   gradientUnits="userSpaceOnUse">
			<stop
   offset="0"
   stop-color="#005ba1"
   stop-opacity="1"
   id="stop11" />
			<stop
   offset="0.26"
   stop-color="#00589d"
   stop-opacity="1"
   id="stop13" />
			<stop
   offset="0.53"
   stop-color="#004f90"
   stop-opacity="1"
   id="stop15" />
			<stop
   offset="0.8"
   stop-color="#003f7c"
   stop-opacity="1"
   id="stop17" />
			<stop
   offset="1"
   stop-color="#003067"
   stop-opacity="1"
   id="stop19" />
		</linearGradient>
	</defs>
	<g
   id="g134"
   transform="translate(-47.517451,-35.958036)">
		<title
   id="title23">Page-1</title>
		<g
   id="group15156-1"
   transform="translate(47.5177,-59.5217)">
			<title
   id="title25">Generic Email Server.15156</title>
			<g
   id="group15157-2">
				<title
   id="title27">Page-1</title>
				<g
   id="group15158-3">
					<title
   id="title29">Sheet.15158</title>
					<g
   id="group15159-4">
						<title
   id="title31">Sheet.15159</title>
						<g
   id="group15160-5">
							<title
   id="title33">Icon-databases-136.149</title>
							<g
   id="group15161-6">
								<title
   id="title35">path4-5</title>
								<g
   id="group15162-7">
									<title
   id="title37">Sheet.15162</title>
									<g
   id="shape15163-8">
										<title
   id="title39">Sheet.15163</title>
										<path
   d="m 32.26,150.25 a 1.96687,1.90526 90 0 1 -1.87,1.92 H 1.87 A 1.93295,1.87241 90 0 1 0,150.25 V 97.41 a 1.89904,1.83956 90 0 1 1.87,-1.93 h 28.52 a 1.93295,1.87241 90 0 1 1.87,1.93 z"
   class="st1"
   id="path41"
   inkscape:connector-curvature="0"
   style="fill:url(#grad0-11);stroke:none;stroke-width:35.95970154;stroke-linecap:butt" />
									</g>
								</g>
							</g>
							<g
   id="group15164-12"
   transform="translate(4.7303,-33.1992)">
								<title
   id="title46">path6-7</title>
								<g
   id="group15165-13">
									<title
   id="title48">Sheet.15165</title>
									<g
   id="shape15166-14">
										<title
   id="title50">Sheet.15166</title>
										<path
   d="m 0,148.55 a 3.62853,3.51487 90 0 1 3.48,-3.6 h 16.1 a 3.62853,3.51487 90 0 1 3.61,3.6 3.62853,3.51487 90 0 1 -3.61,3.62 H 3.48 A 3.62853,3.51487 90 0 1 0,148.55 Z m 0,-10.72 a 3.62853,3.51487 90 0 1 3.48,-3.62 h 16.1 a 3.62853,3.51487 90 0 1 3.61,3.62 3.62853,3.51487 90 0 1 -3.61,3.6 H 3.48 A 3.62853,3.51487 90 0 1 0,137.83 Z"
   class="st2"
   id="path52"
   inkscape:connector-curvature="0"
   style="fill:#003067;stroke:none;stroke-width:35.95970154;stroke-linecap:butt" />
									</g>
								</g>
							</g>
							<g
   id="group15167-16"
   transform="translate(6.04426,-45.0955)">
								<title
   id="title57">circle8-5</title>
								<g
   id="group15168-17">
									<title
   id="title59">Sheet.15168</title>
									<g
   id="shape15169-18">
										<title
   id="title61">Sheet.15169</title>
										<ellipse
   cx="2.36514"
   cy="149.733"
   rx="2.36514"
   ry="2.4416299"
   class="st3"
   id="ellipse63"
   style="fill:#50e6ff;stroke:none;stroke-width:35.95970154;stroke-linecap:butt" />
									</g>
								</g>
							</g>
							<g
   id="group15170-20"
   transform="translate(6.04426,-34.3796)">
								<title
   id="title68">circle10-2</title>
								<g
   id="group15171-21">
									<title
   id="title70">Sheet.15171</title>
									<g
   id="shape15172-22">
										<title
   id="title72">Sheet.15172</title>
										<ellipse
   cx="2.36514"
   cy="149.733"
   rx="2.36514"
   ry="2.4416299"
   class="st3"
   id="ellipse74"
   style="fill:#50e6ff;stroke:none;stroke-width:35.95970154;stroke-linecap:butt" />
									</g>
								</g>
							</g>
						</g>
					</g>
					<g
   id="group15173-24"
   transform="translate(15.9295,-3.92553)">
						<title
   id="title81">Data Share Invitation.316</title>
						<g
   id="group15174-25">
							<title
   id="title83">Icon-integration-214</title>
							<g
   id="group15175-26">
								<title
   id="title85">path4</title>
								<g
   id="group15176-27">
									<title
   id="title87">Sheet.15176</title>
									<g
   id="shape15177-28">
										<title
   id="title89">Sheet.15177</title>
										<path
   d="M 32.26,130.38 H 32.22 V 130.3 H 32.15 L 15.43,130.39 0.07,130.3 H 0 v 21.87 h 32.22 v -21.79 z"
   class="st4"
   id="path91"
   inkscape:connector-curvature="0"
   style="fill:#50e6ff;stroke:none;stroke-width:63.44720078;stroke-linecap:butt" />
									</g>
								</g>
							</g>
							<g
   id="group15178-30">
								<title
   id="title96">path6</title>
								<g
   id="group15179-31">
									<title
   id="title98">Sheet.15179</title>
									<g
   id="shape15180-32">
										<title
   id="title100">Sheet.15180</title>
										<path
   d="m 0,130.38 v 21.79 l 16.13,-10.89 z"
   class="st5"
   id="path102"
   inkscape:connector-curvature="0"
   style="fill:#32bedd;stroke:none;stroke-width:63.44720078;stroke-linecap:butt" />
									</g>
								</g>
							</g>
							<g
   id="group15181-34"
   transform="translate(16.1281)">
								<title
   id="title107">path8</title>
								<g
   id="group15182-35">
									<title
   id="title109">Sheet.15182</title>
									<g
   id="shape15183-36">
										<title
   id="title111">Sheet.15183</title>
										<path
   d="M 16.09,130.38 0,141.28 16.09,152.17 Z"
   class="st6"
   id="path113"
   inkscape:connector-curvature="0"
   style="fill:#198ab3;stroke:none;stroke-width:63.44720078;stroke-linecap:butt" />
									</g>
								</g>
							</g>
							<g
   id="group15184-38"
   transform="translate(0,-2.01385e-6)">
								<title
   id="title118">path10</title>
								<g
   id="group15185-39">
									<title
   id="title120">Sheet.15185</title>
									<g
   id="shape15186-40">
										<title
   id="title122">Sheet.15186</title>
										<path
   d="M 16.09,141.28 0,152.14 v 0.03 h 32.22 v -0.03 z"
   class="st7"
   id="path124"
   inkscape:connector-curvature="0"
   style="fill:url(#grad0-43);stroke:none;stroke-width:63.44720078;stroke-linecap:butt" />
									</g>
								</g>
							</g>
						</g>
					</g>
				</g>
			</g>
		</g>
	</g>
</svg>

<?xml version="1.0" encoding="UTF-8" standalone="no"?>
<!DOCTYPE svg PUBLIC "-//W3C//DTD SVG 1.1//EN" "http://www.w3.org/Graphics/SVG/1.1/DTD/svg11.dtd">
<!-- Generated by Microsoft Visio, SVG Export Generic Email Server.svg Page-1 -->
<svg xmlns="http://www.w3.org/2000/svg" xmlns:xlink="http://www.w3.org/1999/xlink" xmlns:ev="http://www.w3.org/2001/xml-events"
		width="2.21047in" height="2.11354in" viewBox="0 0 159.154 152.175" xml:space="preserve" color-interpolation-filters="sRGB"
		class="st8">
	<style type="text/css">
	<![CDATA[
		.st1 {fill:url(#grad0-11);stroke:none;stroke-linecap:butt;stroke-width:35.9597}
		.st2 {fill:#003067;stroke:none;stroke-linecap:butt;stroke-width:35.9597}
		.st3 {fill:#50e6ff;stroke:none;stroke-linecap:butt;stroke-width:35.9597}
		.st4 {fill:#50e6ff;stroke:none;stroke-linecap:butt;stroke-width:63.4472}
		.st5 {fill:#32bedd;stroke:none;stroke-linecap:butt;stroke-width:63.4472}
		.st6 {fill:#198ab3;stroke:none;stroke-linecap:butt;stroke-width:63.4472}
		.st7 {fill:url(#grad0-43);stroke:none;stroke-linecap:butt;stroke-width:63.4472}
		.st8 {fill:none;fill-rule:evenodd;font-size:12px;overflow:visible;stroke-linecap:square;stroke-miterlimit:3}
	]]>
	</style>

	<defs id="Patterns_And_Gradients">
		<linearGradient id="grad0-11" x1="0" y1="0" x2="1" y2="0" gradientTransform="rotate(-90 0.5 0.5)">
			<stop offset="0" stop-color="#949494" stop-opacity="1"/>
			<stop offset="0.53" stop-color="#a2a2a2" stop-opacity="1"/>
			<stop offset="1" stop-color="#b3b3b3" stop-opacity="1"/>
		</linearGradient>
		<linearGradient id="grad0-43" x1="0" y1="0" x2="1" y2="0" gradientTransform="rotate(90 0.5 0.5)">
			<stop offset="0" stop-color="#005ba1" stop-opacity="1"/>
			<stop offset="0.26" stop-color="#00589d" stop-opacity="1"/>
			<stop offset="0.53" stop-color="#004f90" stop-opacity="1"/>
			<stop offset="0.8" stop-color="#003f7c" stop-opacity="1"/>
			<stop offset="1" stop-color="#003067" stop-opacity="1"/>
		</linearGradient>
	</defs>
	<g>
		<title>Page-1</title>
		<g id="group14773-1" transform="translate(47.5177,-59.5217)">
			<title>Generic Email Server.14773</title>
			<g id="group14774-2">
				<title>Page-1</title>
				<g id="group14775-3">
					<title>Sheet.14775</title>
					<g id="group14776-4">
						<title>Sheet.14776</title>
						<g id="group14777-5">
							<title>Icon-databases-136.149</title>
							<g id="group14778-6">
								<title>path4-5</title>
								<g id="group14779-7">
									<title>Sheet.14779</title>
									<g id="shape14780-8">
										<title>Sheet.14780</title>
										<path d="M32.26 150.25 A1.96687 1.90526 90 0 1 30.39 152.17 L1.87 152.17 A1.93295 1.87241
													 90 0 1 -0 150.25 L0 97.41 A1.89904 1.83956 90 0 1 1.87 95.48 L30.39 95.48 A1.93295
													 1.87241 90 0 1 32.26 97.41 L32.26 150.25 Z" class="st1"/>
									</g>
								</g>
							</g>
							<g id="group14781-12" transform="translate(4.7303,-33.1992)">
								<title>path6-7</title>
								<g id="group14782-13">
									<title>Sheet.14782</title>
									<g id="shape14783-14">
										<title>Sheet.14783</title>
										<path d="M-0 148.55 A3.62853 3.51487 90 0 1 3.48 144.95 L19.58 144.95 A3.62853 3.51487 90
													 0 1 23.19 148.55 A3.62853 3.51487 90 0 1 19.58 152.17 L3.48 152.17 A3.62853
													 3.51487 90 0 1 0 148.55 ZM0 137.83 A3.62853 3.51487 90 0 1 3.48 134.21 L19.58
													 134.21 A3.62853 3.51487 90 0 1 23.19 137.83 A3.62853 3.51487 90 0 1 19.58 141.43
													 L3.48 141.43 A3.62853 3.51487 90 0 1 -0 137.83 Z" class="st2"/>
									</g>
								</g>
							</g>
							<g id="group14784-16" transform="translate(6.04426,-45.0955)">
								<title>circle8-5</title>
								<g id="group14785-17">
									<title>Sheet.14785</title>
									<g id="shape14786-18">
										<title>Sheet.14786</title>
										<ellipse cx="2.36514" cy="149.733" rx="2.36514" ry="2.44163" class="st3"/>
									</g>
								</g>
							</g>
							<g id="group14787-20" transform="translate(6.04426,-34.3796)">
								<title>circle10-2</title>
								<g id="group14788-21">
									<title>Sheet.14788</title>
									<g id="shape14789-22">
										<title>Sheet.14789</title>
										<ellipse cx="2.36514" cy="149.733" rx="2.36514" ry="2.44163" class="st3"/>
									</g>
								</g>
							</g>
						</g>
					</g>
					<g id="group14790-24" transform="translate(15.9295,-3.92553)">
						<title>Data Share Invitation.316</title>
						<g id="group14791-25">
							<title>Icon-integration-214</title>
							<g id="group14792-26">
								<title>path4</title>
								<g id="group14793-27">
									<title>Sheet.14793</title>
									<g id="shape14794-28">
										<title>Sheet.14794</title>
										<path d="M32.26 130.38 L32.22 130.38 L32.22 130.3 L32.15 130.3 L15.43 130.39 L0.07 130.3
													 L0 130.3 L0 152.17 L32.22 152.17 L32.22 130.38 L32.26 130.38 Z" class="st4"/>
									</g>
								</g>
							</g>
							<g id="group14795-30">
								<title>path6</title>
								<g id="group14796-31">
									<title>Sheet.14796</title>
									<g id="shape14797-32">
										<title>Sheet.14797</title>
										<path d="M0 130.38 L0 152.17 L16.13 141.28 L0 130.38 Z" class="st5"/>
									</g>
								</g>
							</g>
							<g id="group14798-34" transform="translate(16.1281,0)">
								<title>path8</title>
								<g id="group14799-35">
									<title>Sheet.14799</title>
									<g id="shape14800-36">
										<title>Sheet.14800</title>
										<path d="M16.09 130.38 L0 141.28 L16.09 152.17 L16.09 130.38 Z" class="st6"/>
									</g>
								</g>
							</g>
							<g id="group14801-38" transform="translate(0,-2.01385E-06)">
								<title>path10</title>
								<g id="group14802-39">
									<title>Sheet.14802</title>
									<g id="shape14803-40">
										<title>Sheet.14803</title>
										<path d="M16.09 141.28 L0 152.14 L0 152.17 L32.22 152.17 L32.22 152.14 L16.09 141.28 Z"
												class="st7"/>
									</g>
								</g>
							</g>
						</g>
					</g>
				</g>
			</g>
		</g>
	</g>
</svg>
